X:1
T:Title
%%score { 1 | ( 2 3 ) }
L:1/8
M:3/4
K:E
V:1 treble nm="Grand Piano"
V:2 bass 
V:3 bass 
V:1
 z2 z2[Q:1/4=121] G2 | G4 F2 | E4 F2 | G4 A2 | B4 B2 | e4 d2 | [Gc]4 [Ec]2 |[M:2/4] [DB]4 | %8
[M:1/4] [FA]2 |[M:3/4] G4 F2 | E4 A2 | G4 c2 | B4 [B,EG]2 | [CEG]4 .[CEA]2 | [CEF]4 [B,DA]2 | %15
[M:2/4] [B,EG]4 |] %16
V:2
 z2 z2 [E,B,E]2 | [E,B,E]4 [E,A,D]2 | [E,G,]4 [F,A,E]2 | [E,B,E]4 [E,F,D]2 | [E,G,E]4 [A,B,D]2 | %5
 [G,B,E]4 [F,B,F]2 | [E,B,]4 [F,^A,]2 |[M:2/4] [B,,B,]4 |[M:1/4] [D,B,]2 | %9
[M:3/4] [E,B,E]4 [A,B,D]2 | [G,B,]4 [F,B,D]2 | [E,B,E]4 [A,E]2 | [G,B,E]4 E,D, | C,4 z G | %14
 z2 z G B,,2 |[M:2/4] E,4 |] %16
V:3
 x6 | x6 | x6 | x6 | x6 | x6 | x6 |[M:2/4] x4 |[M:1/4] x2 |[M:3/4] x6 | x6 | x6 | x6 | z2 z2 C,2 | %14
 A,,4 z2 |[M:2/4] x4 |] %16

